style-guide/assets/xd-icons-share-small.svg

<svg viewBox="0 0 18 18" xmlns="http://www.w3.org/2000/svg">
  <path d="M14.5 15a1.502 1.502 0 0 1-1.406-2.022l.022-.05.017-.045c.236-.52.76-.883 1.367-.883.827 0 1.5.673 1.5 1.5s-.673 1.5-1.5 1.5M4.906 9.522l-.022.05-.017.045c-.236.52-.76.883-1.367.883C2.673 10.5 2 9.827 2 9s.673-1.5 1.5-1.5c.607 0 1.131.363 1.367.883l.017.045.022.05a1.482 1.482 0 0 1 0 1.044M14.5 3c.827 0 1.5.673 1.5 1.5S15.327 6 14.5 6a1.503 1.503 0 0 1-1.367-.883l-.017-.045-.022-.05A1.502 1.502 0 0 1 14.5 3m0 7c-1.098 0-2.08.508-2.722 1.303L6.983 9.348a3.653 3.653 0 0 0 0-.696l4.795-1.955A3.492 3.492 0 0 0 14.5 8C16.43 8 18 6.43 18 4.5S16.43 1 14.5 1a3.504 3.504 0 0 0-3.483 3.848L6.222 6.803A3.492 3.492 0 0 0 3.5 5.5C1.57 5.5 0 7.07 0 9s1.57 3.5 3.5 3.5c1.098 0 2.08-.508 2.722-1.303l4.795 1.955A3.504 3.504 0 0 0 14.5 17c1.93 0 3.5-1.57 3.5-3.5S16.43 10 14.5 10" fill="#000" fill-rule="evenodd"/>
</svg>

<?xml version="1.0" encoding="UTF-8"?>
<svg width="18px" height="18px" viewBox="0 0 18 18" version="1.1" xmlns="http://www.w3.org/2000/svg" xmlns:xlink="http://www.w3.org/1999/xlink">
    <!-- Generator: Sketch 51.3 (57544) - http://www.bohemiancoding.com/sketch -->
    <title>share</title>
    <desc>Created with Sketch.</desc>
    <defs></defs>
    <g id="share" stroke="none" stroke-width="1" fill="none" fill-rule="evenodd">
        <path d="M14.5,15 C13.673,15 13,14.327 13,13.5 C13,13.316 13.033,13.141 13.094,12.978 C13.102,12.961 13.109,12.944 13.116,12.928 C13.122,12.912 13.127,12.898 13.133,12.883 C13.369,12.363 13.893,12 14.5,12 C15.327,12 16,12.673 16,13.5 C16,14.327 15.327,15 14.5,15 M4.906,9.522 C4.898,9.539 4.891,9.556 4.884,9.572 C4.878,9.588 4.873,9.602 4.867,9.617 C4.631,10.137 4.107,10.5 3.5,10.5 C2.673,10.5 2,9.827 2,9 C2,8.173 2.673,7.5 3.5,7.5 C4.107,7.5 4.631,7.863 4.867,8.383 C4.873,8.398 4.878,8.412 4.884,8.428 C4.891,8.444 4.898,8.461 4.906,8.478 C4.967,8.641 5,8.816 5,9 C5,9.184 4.967,9.359 4.906,9.522 M14.5,3 C15.327,3 16,3.673 16,4.5 C16,5.327 15.327,6 14.5,6 C13.893,6 13.369,5.637 13.133,5.117 C13.127,5.102 13.122,5.088 13.116,5.072 C13.109,5.056 13.102,5.039 13.094,5.022 C13.033,4.859 13,4.684 13,4.5 C13,3.673 13.673,3 14.5,3 M14.5,10 C13.402,10 12.42,10.508 11.778,11.303 L6.983,9.348 C6.994,9.233 7,9.117 7,9 C7,8.883 6.994,8.767 6.983,8.652 L11.778,6.697 C12.42,7.492 13.402,8 14.5,8 C16.43,8 18,6.43 18,4.5 C18,2.57 16.43,1 14.5,1 C12.57,1 11,2.57 11,4.5 C11,4.617 11.006,4.733 11.017,4.848 L6.222,6.803 C5.58,6.008 4.598,5.5 3.5,5.5 C1.57,5.5 0,7.07 0,9 C0,10.93 1.57,12.5 3.5,12.5 C4.598,12.5 5.58,11.992 6.222,11.197 L11.017,13.152 C11.006,13.267 11,13.383 11,13.5 C11,15.43 12.57,17 14.5,17 C16.43,17 18,15.43 18,13.5 C18,11.57 16.43,10 14.5,10" id="Fill-1" fill="#000000"></path>
    </g>
</svg>
